X:458
T: HOPCHEN HOP HOP HEI
N: E1708
O: Europa, Mitteleuropa, Deutschland
R: Scherz - Lied
M: 4/4
L: 1/8
K: F
 | A3AG3F | F8 |
A3AG3F | F8 |
A2A2A2c2 | B2A2G4 |
A2A2A2c2 | B2A2G4 |
A3AG3F | F8

@@@ Tune index: 5142
